packages/dnb-ui-lib/assets/icons/star.svg

<svg width="16" height="16" viewBox="0 0 16 16" fill="none" xmlns="http://www.w3.org/2000/svg">
<path d="M8.45201 1.27736L10.5338 5.40218L14.5406 5.79917C14.636 5.8071 14.7271 5.84219 14.8032 5.9003C14.8793 5.95841 14.9371 6.03711 14.9698 6.12706C15.0025 6.21701 15.0088 6.31447 14.9879 6.40788C14.967 6.50128 14.9197 6.58674 14.8517 6.65412L11.5542 9.92275L12.7768 14.3643C12.8018 14.4585 12.799 14.5579 12.7689 14.6506C12.7387 14.7433 12.6825 14.8253 12.6068 14.8868C12.5312 14.9482 12.4394 14.9865 12.3425 14.997C12.2456 15.0076 12.1477 14.9899 12.0606 14.9461L7.99844 12.9344L3.94186 14.9436C3.85478 14.9874 3.75691 15.0051 3.66002 14.9946C3.56312 14.984 3.47133 14.9457 3.39568 14.8843C3.32004 14.8228 3.26375 14.7408 3.2336 14.6481C3.20345 14.5554 3.20072 14.456 3.22573 14.3618L4.44831 9.92026L1.14829 6.65164C1.0803 6.58425 1.03305 6.4988 1.01212 6.40539C0.991191 6.31198 0.997463 6.21453 1.03019 6.12457C1.06293 6.03462 1.12075 5.95593 1.19681 5.89781C1.27287 5.8397 1.36399 5.80461 1.45937 5.79668L5.46619 5.39969L7.54488 1.27736C7.58763 1.19385 7.6526 1.12377 7.73263 1.07483C7.81266 1.0259 7.90464 1 7.99844 1C8.09225 1 8.18423 1.0259 8.26426 1.07483C8.34429 1.12377 8.40926 1.19385 8.45201 1.27736V1.27736Z" stroke="black" stroke-width="1.5" stroke-linecap="round" stroke-linejoin="round"/>
</svg>

<svg width="16" height="16" viewBox="0 0 16 16" fill="none" xmlns="http://www.w3.org/2000/svg"><path d="M8.452 1.277l2.082 4.125 4.007.397a.501.501 0 01.31.855l-3.297 3.269 1.223 4.441a.506.506 0 01-.716.582l-4.063-2.012-4.056 2.01a.506.506 0 01-.716-.582L4.448 9.92l-3.3-3.268a.5.5 0 01.311-.855L5.466 5.4l2.079-4.123a.51.51 0 01.907 0v0z" stroke="#000" stroke-width="1.5" stroke-linecap="round" stroke-linejoin="round"/></svg>
